icons/CS.svg

<svg xmlns="http://www.w3.org/2000/svg" width="256" height="256" fill="none" viewBox="0 0 256 256"><rect width="256" height="256" fill="#953CAD" rx="60"/><path fill="#fff" d="M195.436 100.668V114.142H208.91V100.668H215.647V114.142H229.12V120.879H215.647V134.352H229.12V141.089H215.647V154.563H208.91V141.089H195.436V154.563H188.699V141.089H175.226V134.352H188.699V120.879H175.226V114.142H188.699V100.668H195.436ZM208.91 120.879H195.436V134.352H208.91V120.879Z"/><path fill="#fff" d="M122.001 33C157.144 33 187.828 52.0863 204.262 80.4561L204.102 80.183L162.753 103.991C154.607 90.1977 139.672 80.8892 122.54 80.6975L122.001 80.6945C95.875 80.6945 74.6945 101.874 74.6945 127.999C74.6945 136.543 76.9723 144.552 80.9335 151.469C89.0876 165.704 104.416 175.306 122.001 175.306C139.693 175.306 155.109 165.582 163.222 151.195L163.025 151.54L204.311 175.458C188.057 203.588 157.794 222.615 123.059 222.994L122.001 223C86.746 223 55.9753 203.796 39.582 175.276C31.5791 161.353 27 145.212 27 127.999C27 75.5334 69.5323 33 122.001 33Z"/></svg>

<svg xmlns="http://www.w3.org/2000/svg" width="256" height="256" fill="none"><rect width="256" height="256" fill="#953CAD" rx="60"/><path fill="#fff" d="M195.436 100.668v13.474h13.474v-13.474h6.737v13.474h13.473v6.737h-13.473v13.473h13.473v6.737h-13.473v13.474h-6.737v-13.474h-13.474v13.474h-6.737v-13.474h-13.473v-6.737h13.473v-13.473h-13.473v-6.737h13.473v-13.474h6.737Zm13.474 20.211h-13.474v13.473h13.474v-13.473Z"/><path fill="#fff" d="M122.001 33c35.143 0 65.827 19.086 82.261 47.456l-.16-.273-41.349 23.808c-8.146-13.793-23.081-23.102-40.213-23.293l-.539-.003c-26.126 0-47.306 21.179-47.306 47.304a47.08 47.08 0 0 0 6.239 23.47c8.154 14.235 23.482 23.837 41.067 23.837 17.692 0 33.108-9.724 41.221-24.111l-.197.345 41.286 23.918c-16.254 28.13-46.517 47.157-81.252 47.536l-1.058.006c-35.255 0-66.026-19.204-82.419-47.724C31.579 161.353 27 145.212 27 127.999 27 75.533 69.532 33 122.001 33Z"/></svg>
